assets/images/close-icon.svg

<?xml version="1.0" encoding="UTF-8" standalone="no"?>
<svg width="30px" height="30px" viewBox="0 0 30 30" version="1.1" xmlns="http://www.w3.org/2000/svg" xmlns:xlink="http://www.w3.org/1999/xlink">
    <defs></defs>
    <g id="Responsiveness" stroke="none" stroke-width="1" fill="none" fill-rule="evenodd">
        <g id="close-icon" fill="#000000">
            <g id="Responsiveness">
                <g id="iPad-Portrait-768px-—-MENU">
                    <path d="M16.3256354,15 L29.7254275,1.60020781 C30.0915242,1.2341112 30.0915242,0.640669068 29.7254275,0.274572458 C29.3597997,-0.0915241525 28.76542,-0.0915241525 28.3997922,0.274572458 L15,13.6743646 L1.60020781,0.274572458 C1.23457996,-0.0915241525 0.640200314,-0.0915241525 0.274572458,0.274572458 C-0.0915241525,0.640669068 -0.0915241525,1.2341112 0.274572458,1.60020781 L13.6743646,15 L0.274572458,28.3997922 C-0.0915241525,28.7658888 -0.0915241525,29.3593309 0.274572458,29.7254275 C0.457386386,29.9087102 0.697388261,30.0001172 0.937390136,30.0001172 C1.17739201,30.0001172 1.41739389,29.9087102 1.60020781,29.7254275 L15,16.3256354 L28.3997922,29.7254275 C28.5826061,29.9087102 28.822608,30.0001172 29.0626099,30.0001172 C29.3026117,30.0001172 29.5426136,29.9087102 29.7254275,29.7254275 C30.0915242,29.3593309 30.0915242,28.7658888 29.7254275,28.3997922 L16.3256354,15 L16.3256354,15 Z" id="Shape"></path>
                </g>
            </g>
        </g>
    </g>
</svg>

<svg width="30" height="30" xmlns="http://www.w3.org/2000/svg"><path d="M16.3256 15L29.7254 1.6002a.9373.9373 0 0 0 0-1.3256c-.3656-.3661-.96-.3661-1.3256 0L15 13.6744 1.6002.2746c-.3656-.3661-.96-.3661-1.3256 0a.9373.9373 0 0 0 0 1.3256L13.6744 15 .2746 28.3998a.9373.9373 0 0 0 0 1.3256.933.933 0 0 0 .6628.2747c.24 0 .48-.0914.6628-.2747L15 16.3256l13.3998 13.3998a.933.933 0 0 0 .6628.2747c.24 0 .48-.0914.6628-.2747a.9373.9373 0 0 0 0-1.3256L16.3256 15z" fill="#000" fill-rule="evenodd"/></svg>
